src/images/icons/ssgs/11ty.svg

<?xml version="1.0" encoding="UTF-8" standalone="no"?>
<svg
   fill="none"
   height="90"
   viewBox="0 0 90 90"
   width="90"
   version="1.1"
   id="svg2098"
   sodipodi:docname="11ty.svg"
   inkscape:version="1.1.2 (b8e25be8, 2022-02-05)"
   xmlns:inkscape="http://www.inkscape.org/namespaces/inkscape"
   xmlns:sodipodi="http://sodipodi.sourceforge.net/DTD/sodipodi-0.dtd"
   xmlns="http://www.w3.org/2000/svg"
   xmlns:svg="http://www.w3.org/2000/svg">
  <defs
     id="defs2102" />
  <sodipodi:namedview
     id="namedview2100"
     pagecolor="#ffffff"
     bordercolor="#666666"
     borderopacity="1.0"
     inkscape:pageshadow="2"
     inkscape:pageopacity="0.0"
     inkscape:pagecheckerboard="0"
     showgrid="false"
     width="90px"
     inkscape:zoom="5.9153846"
     inkscape:cx="6.0013004"
     inkscape:cy="37.444733"
     inkscape:window-width="1296"
     inkscape:window-height="923"
     inkscape:window-x="0"
     inkscape:window-y="25"
     inkscape:window-maximized="0"
     inkscape:current-layer="svg2098" />
  <g
     id="g2110"
     transform="matrix(0.82574772,0,0,0.82574772,8.5149545,7.6801043)">
    <path
       d="M 12,46.5 C 12,28.5507 26.5507,14 44.5,14 62.4493,14 77,28.5507 77,46.5 77,64.4493 62.4493,79 44.5,79 26.5507,79 12,64.4493 12,46.5 Z"
       fill="#000000"
       id="path2086" />
    <g
       fill="#ffffff"
       id="g2096"
       transform="translate(12,14)">
      <path
         d="m 45.1595,34.6853 c 0.2509,-1.6908 0.503,-3.3816 0.7539,-5.0712 0.1467,-0.9896 0.2897,-1.9805 0.4452,-2.9689 0.1016,-0.6472 0.3989,-0.8855 1.0624,-0.8855 0.3136,0 0.6272,-0.0025 0.9395,0 0.365,0.0037 0.5983,0.1542 0.6234,0.518 0.0288,0.4202 0.0125,0.8554 -0.0665,1.2681 -0.8642,4.5456 -1.7309,9.0912 -2.6303,13.6305 -0.1505,0.7601 -0.4139,1.5064 -0.7024,2.2289 -0.4001,1.0047 -1.2066,1.4475 -2.2765,1.4286 -0.5469,-0.01 -1.085,-0.0589 -1.5516,-0.3913 -0.3324,-0.2358 -0.5619,-0.5381 -0.5532,-0.962 0.0088,-0.4039 0.0038,-0.8166 0.0866,-1.2079 0.1016,-0.4804 0.4189,-0.6272 0.8981,-0.498 0.1919,0.0514 0.3888,0.0878 0.5707,0.1631 0.2998,0.1229 0.4415,0 0.5406,-0.2722 0.2496,-0.6911 0.2458,-1.3923 0.0803,-2.0947 -0.7489,-3.1634 -1.5014,-6.3267 -2.2553,-9.4888 -0.232,-0.9734 -0.4854,-1.9417 -0.6961,-2.9188 -0.064,-0.2972 -0.0527,-0.6234 -0.0138,-0.9282 0.0426,-0.3286 0.2571,-0.4728 0.5958,-0.4741 0.5331,-0.0037 1.0649,-0.0012 1.598,0 0.5318,0 0.8165,0.2007 0.9407,0.73 0.1442,0.6184 0.2534,1.2455 0.3713,1.8702 0.4001,2.1085 0.7977,4.2182 1.1953,6.3267 h 0.0452 z"
         id="path2088" />
      <path
         d="m 19.6767,23.7976 c -0.2947,0.0715 -0.5343,0.1355 -0.7764,0.1882 -0.3951,0.0865 -0.7049,-0.0464 -0.7751,-0.4303 -0.1518,-0.8215 -0.1907,-1.6569 0.0263,-2.4734 0.0464,-0.1744 0.2534,-0.3839 0.4265,-0.4328 1.2931,-0.3662 2.5939,-0.7074 3.8996,-1.031 0.5005,-0.1242 0.8228,0.1392 0.8843,0.6598 0.0251,0.2169 0.0426,0.4364 0.0426,0.6547 0.0025,6.1674 0.0038,12.3348 -0.0025,18.5022 0,0.3312 -0.0288,0.6686 -0.0978,0.9909 -0.0966,0.4491 -0.3437,0.6209 -0.8028,0.6247 -0.6058,0.0037 -1.2116,0.0012 -1.8162,0 -0.6309,0 -0.8931,-0.2283 -0.9608,-0.8542 -0.0289,-0.2684 -0.0452,-0.5406 -0.0452,-0.8116 -0.0025,-5.0397 -0.0025,-10.0808 -0.0025,-15.1206 0,-0.143 0,-0.286 0,-0.4678 z"
         id="path2090" />
      <path
         d="m 37.0418,25.7582 h 1.4663 c 0.5656,0 0.8592,0.2547 0.8918,0.8166 0.0251,0.4365 0.0251,0.8768 0,1.3145 -0.0301,0.5519 -0.3337,0.8166 -0.8981,0.8228 -0.4491,0.0051 -0.8981,0.0038 -1.3471,0.0063 -0.0201,0 -0.0402,0.01 -0.0979,0.0251 -0.005,0.0991 -0.015,0.2082 -0.015,0.3186 0,2.3907 -0.0088,4.7801 0.0062,7.1708 0.0026,0.4541 0.069,0.9157 0.1631,1.361 0.1091,0.5217 0.3587,0.6898 0.8855,0.6936 0.3023,0.0012 0.6059,-0.005 0.9082,0.0025 0.4465,0.01 0.7413,0.2559 0.7714,0.6999 0.0301,0.4465 0.0301,0.8981 -0.0038,1.3446 -0.0326,0.4365 -0.3311,0.7124 -0.7701,0.7112 -0.8028,-0.0013 -1.6106,0.01 -2.4071,-0.0715 -1.2267,-0.1267 -2.1335,-1.0047 -2.4484,-2.392 -0.1718,-0.7563 -0.2822,-1.5427 -0.2947,-2.3179 -0.0376,-2.3681 -0.0138,-4.7388 -0.0138,-7.1069 0,-0.1329 0,-0.2659 0,-0.4428 -0.2095,0 -0.3826,0.0038 -0.5569,0 -0.5193,-0.0138 -0.8003,-0.2558 -0.8329,-0.7764 -0.0301,-0.4565 -0.0301,-0.9181 -0.0012,-1.3759 0.0351,-0.5519 0.3273,-0.7978 0.8742,-0.8003 h 0.5093 c 0.0363,-0.7538 0.0727,-1.4876 0.1091,-2.2226 0.0589,-1.1979 0.1166,-2.3957 0.1831,-3.5923 0.0088,-0.1631 0.0552,-0.3299 0.1129,-0.4842 0.1154,-0.3073 0.3387,-0.4666 0.6748,-0.4628 0.4177,0.005 0.8354,0 1.2531,0.0012 0.5293,0.0013 0.7814,0.2183 0.8529,0.7513 0.0251,0.1857 0.0251,0.3751 0.0251,0.562 0.0012,1.6807 0,3.3603 0,5.041 z"
         id="path2092" />
      <path
         d="m 26.9292,23.7665 c -0.2647,0.0665 -0.4854,0.1229 -0.7075,0.1768 -0.5067,0.123 -0.8742,-0.0903 -0.9068,-0.6121 -0.0439,-0.6861 -0.0351,-1.3772 0,-2.0633 0.0188,-0.3713 0.2584,-0.6171 0.6422,-0.7137 1.2242,-0.3073 2.4446,-0.6271 3.6676,-0.9395 0.5544,-0.1417 0.8918,0.0766 0.9921,0.6372 0.0201,0.1117 0.0176,0.2283 0.0176,0.3437 0,6.3995 0.0025,12.7989 -0.0038,19.1984 0,0.2458 -0.0464,0.4992 -0.1166,0.735 -0.0966,0.3223 -0.3312,0.4892 -0.6824,0.4854 -0.6999,-0.0063 -1.3998,-0.005 -2.0997,0 -0.3512,0.0025 -0.5895,-0.1693 -0.6735,-0.4942 -0.0753,-0.2897 -0.123,-0.5945 -0.123,-0.8931 -0.0075,-5.1363 -0.005,-10.2727 -0.005,-15.4091 0,-0.1342 0,-0.2696 0,-0.4503 z"
         id="path2094" />
    </g>
  </g>
</svg>

<svg width="65" height="65" viewBox="0 0 65 65" fill="none" xmlns="http://www.w3.org/2000/svg">
<path d="M0 32.5C0 14.5507 14.5507 0 32.5 0C50.4493 0 65 14.5507 65 32.5C65 50.4493 50.4493 65 32.5 65C14.5507 65 0 50.4493 0 32.5Z" fill="black"/>
<path d="M45.1595 34.6853C45.4104 32.9945 45.6625 31.3037 45.9134 29.6141C46.0601 28.6245 46.2031 27.6336 46.3586 26.6452C46.4602 25.998 46.7575 25.7597 47.421 25.7597C47.7346 25.7597 48.0482 25.7572 48.3605 25.7597C48.7255 25.7634 48.9588 25.9139 48.9839 26.2777C49.0127 26.6979 48.9964 27.1331 48.9174 27.5458C48.0532 32.0914 47.1865 36.637 46.2871 41.1763C46.1366 41.9364 45.8732 42.6827 45.5847 43.4052C45.1846 44.4099 44.3781 44.8527 43.3082 44.8338C42.7613 44.8238 42.2232 44.7749 41.7566 44.4425C41.4242 44.2067 41.1947 43.9044 41.2034 43.4805C41.2122 43.0766 41.2072 42.6639 41.29 42.2726C41.3916 41.7922 41.7089 41.6454 42.1881 41.7746C42.38 41.826 42.5769 41.8624 42.7588 41.9377C43.0586 42.0606 43.2003 41.9377 43.2994 41.6655C43.549 40.9744 43.5452 40.2732 43.3797 39.5708C42.6308 36.4074 41.8783 33.2441 41.1244 30.082C40.8924 29.1086 40.639 28.1403 40.4283 27.1632C40.3643 26.866 40.3756 26.5398 40.4145 26.235C40.4571 25.9064 40.6716 25.7622 41.0103 25.7609C41.5434 25.7572 42.0752 25.7597 42.6083 25.7609C43.1401 25.7609 43.4248 25.9616 43.549 26.4909C43.6932 27.1093 43.8024 27.7364 43.9203 28.3611C44.3204 30.4696 44.718 32.5793 45.1156 34.6878C45.1307 34.6878 45.1457 34.6878 45.1608 34.6878L45.1595 34.6853Z" fill="white"/>
<path d="M19.6767 23.7976C19.382 23.8691 19.1424 23.9331 18.9003 23.9858C18.5052 24.0723 18.1954 23.9394 18.1252 23.5555C17.9734 22.734 17.9345 21.8986 18.1515 21.0821C18.1979 20.9077 18.4049 20.6982 18.578 20.6493C19.8711 20.2831 21.1719 19.9419 22.4776 19.6183C22.9781 19.4941 23.3004 19.7575 23.3619 20.2781C23.387 20.495 23.4045 20.7145 23.4045 20.9328C23.407 27.1002 23.4083 33.2676 23.402 39.435C23.402 39.7662 23.3732 40.1036 23.3042 40.4259C23.2076 40.875 22.9605 41.0468 22.5014 41.0506C21.8956 41.0543 21.2898 41.0518 20.6852 41.0506C20.0543 41.0506 19.7921 40.8223 19.7244 40.1964C19.6955 39.928 19.6792 39.6558 19.6792 39.3848C19.6767 34.3451 19.6767 29.304 19.6767 24.2642C19.6767 24.1212 19.6767 23.9782 19.6767 23.7964V23.7976Z" fill="white"/>
<path d="M37.0418 25.7582C37.5535 25.7582 38.0314 25.7582 38.5081 25.7582C39.0737 25.7582 39.3673 26.0129 39.3999 26.5748C39.425 27.0113 39.425 27.4516 39.3999 27.8893C39.3698 28.4412 39.0662 28.7059 38.5018 28.7121C38.0527 28.7172 37.6037 28.7159 37.1547 28.7184C37.1346 28.7184 37.1145 28.7284 37.0568 28.7435C37.0518 28.8426 37.0418 28.9517 37.0418 29.0621C37.0418 31.4528 37.033 33.8422 37.048 36.2329C37.0506 36.687 37.117 37.1486 37.2111 37.5939C37.3202 38.1156 37.5698 38.2837 38.0966 38.2875C38.3989 38.2887 38.7025 38.2825 39.0048 38.29C39.4513 38.3 39.7461 38.5459 39.7762 38.9899C39.8063 39.4364 39.8063 39.888 39.7724 40.3345C39.7398 40.771 39.4413 41.0469 39.0023 41.0457C38.1995 41.0444 37.3917 41.0557 36.5952 40.9742C35.3685 40.8475 34.4617 39.9695 34.1468 38.5822C33.975 37.8259 33.8646 37.0395 33.8521 36.2643C33.8145 33.8962 33.8383 31.5255 33.8383 29.1574C33.8383 29.0245 33.8383 28.8915 33.8383 28.7146C33.6288 28.7146 33.4557 28.7184 33.2814 28.7146C32.7621 28.7008 32.4811 28.4588 32.4485 27.9382C32.4184 27.4817 32.4184 27.0201 32.4473 26.5623C32.4824 26.0104 32.7746 25.7645 33.3215 25.762C33.477 25.762 33.6326 25.762 33.8308 25.762C33.8671 25.0082 33.9035 24.2744 33.9399 23.5394C33.9988 22.3415 34.0565 21.1437 34.123 19.9471C34.1318 19.784 34.1782 19.6172 34.2359 19.4629C34.3513 19.1556 34.5746 18.9963 34.9107 19.0001C35.3284 19.0051 35.7461 19.0001 36.1638 19.0013C36.6931 19.0026 36.9452 19.2196 37.0167 19.7526C37.0418 19.9383 37.0418 20.1277 37.0418 20.3146C37.043 21.9953 37.0418 23.6749 37.0418 25.3556V25.7582Z" fill="white"/>
<path d="M26.9292 23.7665C26.6645 23.833 26.4438 23.8894 26.2217 23.9433C25.715 24.0663 25.3475 23.853 25.3149 23.3312C25.271 22.6451 25.2798 21.954 25.3149 21.2679C25.3337 20.8966 25.5733 20.6508 25.9571 20.5542C27.1813 20.2469 28.4017 19.9271 29.6247 19.6147C30.1791 19.473 30.5165 19.6913 30.6168 20.2519C30.6369 20.3636 30.6344 20.4802 30.6344 20.5956C30.6344 26.9951 30.6369 33.3945 30.6306 39.794C30.6306 40.0398 30.5842 40.2932 30.514 40.529C30.4174 40.8513 30.1828 41.0182 29.8316 41.0144C29.1317 41.0081 28.4318 41.0094 27.7319 41.0144C27.3807 41.0169 27.1424 40.8451 27.0584 40.5202C26.9831 40.2305 26.9354 39.9257 26.9354 39.6271C26.9279 34.4908 26.9304 29.3544 26.9304 24.218C26.9304 24.0838 26.9304 23.9484 26.9304 23.7677L26.9292 23.7665Z" fill="white"/>
</svg>
